packages/sources/assets/src/assets/flag-hn.svg

<svg width="28" height="20" viewBox="0 0 28 20" fill="none" xmlns="http://www.w3.org/2000/svg">
<rect x="0.25" y="0.25" width="27.5" height="19.5" rx="1.75" fill="white" stroke="#F5F5F5" stroke-width="0.5"/>
<mask id="mask0_503_2942" style="mask-type:alpha" maskUnits="userSpaceOnUse" x="0" y="0" width="28" height="20">
<rect x="0.25" y="0.25" width="27.5" height="19.5" rx="1.75" fill="white" stroke="white" stroke-width="0.5"/>
</mask>
<g mask="url(#mask0_503_2942)">
<path fill-rule="evenodd" clip-rule="evenodd" d="M0 6.66667H28V0H0V6.66667Z" fill="#0884E6"/>
<path fill-rule="evenodd" clip-rule="evenodd" d="M0 20H28V13.3333H0V20Z" fill="#0884E6"/>
<path fill-rule="evenodd" clip-rule="evenodd" d="M14 10.6667L13.0572 10.9428L13.3333 10L13.0572 9.0572L14 9.33334L14.9428 9.0572L14.6667 10L14.9428 10.9428L14 10.6667Z" fill="#0E88E9"/>
<path fill-rule="evenodd" clip-rule="evenodd" d="M19.3333 9.33333L18.3905 9.60947L18.6667 8.66666L18.3905 7.72385L19.3333 7.99999L20.2761 7.72385L20 8.66666L20.2761 9.60947L19.3333 9.33333Z" fill="#0E88E9"/>
<path fill-rule="evenodd" clip-rule="evenodd" d="M19.3333 12L18.3905 12.2761L18.6667 11.3333L18.3905 10.3905L19.3333 10.6667L20.2761 10.3905L20 11.3333L20.2761 12.2761L19.3333 12Z" fill="#0E88E9"/>
<path fill-rule="evenodd" clip-rule="evenodd" d="M8.66667 12L7.72386 12.2761L8 11.3333L7.72386 10.3905L8.66667 10.6667L9.60948 10.3905L9.33334 11.3333L9.60948 12.2761L8.66667 12Z" fill="#0E88E9"/>
<path fill-rule="evenodd" clip-rule="evenodd" d="M8.66667 9.33333L7.72386 9.60947L8 8.66666L7.72386 7.72385L8.66667 7.99999L9.60948 7.72385L9.33334 8.66666L9.60948 9.60947L8.66667 9.33333Z" fill="#0E88E9"/>
</g>
</svg>

<svg width="28" height="20" fill="none" xmlns="http://www.w3.org/2000/svg"><rect x=".25" y=".25" width="27.5" height="19.5" rx="1.75" fill="#fff" stroke="#F5F5F5" stroke-width=".5"/><mask id="a" style="mask-type:alpha" maskUnits="userSpaceOnUse" x="0" y="0" width="28" height="20"><rect x=".25" y=".25" width="27.5" height="19.5" rx="1.75" fill="#fff" stroke="#fff" stroke-width=".5"/></mask><g mask="url(#a)" fill-rule="evenodd" clip-rule="evenodd"><path d="M0 6.667h28V0H0v6.667ZM0 20h28v-6.667H0V20Z" fill="#0884E6"/><path d="m14 10.667-.943.276.276-.943-.276-.943.943.276.943-.276-.276.943.276.943-.943-.276Zm5.333-1.334-.942.276.276-.942-.277-.943.943.276.943-.276-.276.943.276.942-.943-.276Zm0 2.667-.942.276.276-.943-.277-.943.943.277.943-.277-.276.943.276.943-.943-.276ZM8.667 12l-.943.276.276-.943-.276-.943.943.277.942-.277-.276.943.276.943L8.667 12Zm0-2.667-.943.276L8 8.667l-.276-.943.943.276.942-.276-.276.943.276.942-.942-.276Z" fill="#0E88E9"/></g></svg>
